FINK
CUT[MEIN MAEDCHEN WOHNT IM UNTERLAND]
REG[Europa, Mitteleuropa, Deutschland]
KEY[F0231  16  C 3/4]
MEL[5_  5_3_6__.5_  5_.22__.
    3_  4_3_2__6__  5___0_
    5_  5_3_+1__.+1_  7_.6+2__.
    +1_  7__.5_7_.6  5___0_
    5_  5_.+1+3_+2_+1_7_  7_.6+2_+1_7_
    6_  5__.2_4_.3  1___0_ //] >>
FCT[Liebes - Lied]
